!!!!SEGMENT: pl-wn--mus-2041-7_zelenski-wladyslaw--tesknota-za-zima.krn
!!!cenid: 18xx:3643
!!!COM: Żeleński, Władysław
!!!COM-rismid: pe41024455
!!!CDT:
!!!CNT:
!!!OTL: Tęsknota za zimą
!!!PDT:
!!!AGN:
!!!SMS-siglum: PL-Wn
!!!SMS-shelfmark: Mus.2041/7
!!!SMS-shelfwork: W
!!!SMS-variant:
!!!SMS-altvar:
!!!NIFC-rismid:
!!!URL-scan: https://polona.pl/item/tesknota-za-zima,NjU5MjI0NzY/4/#info:metadata
!!!ONB-nifc:
!!!key: D/H
**kern	**kern	**dynam	**kern	**text	**dynam
*part2	*part2	*part2	*part1	*part1	*part1
*staff3	*staff2	*	*staff1	*staff1	*
*Ipiano	*Iempty	*	*Iempty	*	*
*I"Piano	*	*	*I"Śpiew	*	*
*I'P-no	*	*	*I'V	*	*
*ICstr	*	*	*ICvox	*	*
*clefF4	*clefG2	*	*clefG2	*	*
*k[f#c#]	*k[f#c#]	*	*k[f#c#]	*	*
*b:	*b:	*	*b:	*	*
*M12/8	*M12/8	*	*M12/8	*	*
*	*	*below	*	*	*
*^	*	*	*	*	*
!	!	!	!	!LO:TX:a:t=Andante ustenuto.	!	!
8r	8ryy	(>4.f#/ 4.d/	pp	2.r	.	.
!LO:TX:b:t=molto legato	!	!	!	!	!	!
8BB/	8BB\L	.	.	.	.	.
8B/	8B\J	.	.	.	.	.
4A/	8A\L	4.e#X/ 4.c#/	.	.	.	.
.	8BB\	.	.	.	.	.
8G/	8G\J	.	.	.	.	.
=1	=1	=1	=1	=1	=1	=1
*	*	*^	*	*	*	*
4F#/	8F#\L	4.f#/ 4.d/	1ryy	<	1.r	.	.
.	8BB\	.	.	.	.	.	.
8B/	8B\J	.	.	.	.	.	.
4A/	8A\L	4.e#X/ 4.c#/	.	.	.	.	.
.	8BB\	.	.	.	.	.	.
8G#X/	8G#\J	.	.	.	.	.	.
4Gn/	8G\L	4.en/ 4.cn/	.	.	.	.	.
.	8Cn\	.	.	.	.	.	.
4G/	8G\J	.	8ryy	.	.	.	.
.	8GG\L	4.d/	4B\	.	.	.	.
4D/	8D\	.	.	.	.	.	.
.	8FF#\J	.	8A\	.	.	.	.
=2	=2	=2	=2	=2	=2	=2	=2
4E/	4.EE\	8d/L	[4.G\	[	1.r	.	.
.	.	8cn/	.	.	.	.	.
8D/	.	8B/J	.	.	.	.	.
[4.C#/	[4.FF#\	4.A/	8G\L]	.	.	.	.
.	.	.	8F#\	.	.	.	.
.	.	.	8qAn/	.	.	.	.
.	.	.	8G\J	.	.	.	.
8C#/]	8FF#\]	8A#X/)	(2.F#\	.	.	.	.
8r	8ryy	8r	.	.	.	.	.
8r	2ryy	8r	.	.	.	.	.
4r	.	4r	.	.	.	.	.
8r	.	8r	.	.	.	.	.
*	*	*v	*v	*	*	*	*
!!LO:LB:g=original
=3	=3	=3	=3	=3	=3	=3
4.ryy	8r	4.f#/ 4.d/)	pp	4r	.	.
.	8BB\L	.	.	.	.	.
.	8B\J	.	.	8r	.	.
!	!	!	!	!	!	!LO:DY:a
4.F#/	8F#\L	4.f#/ 4.d/	.	8f#/	W ser-	p
.	8BB\	.	.	8e/	-cu	.
.	8B\J	.	.	8d/	mem	.
4.G/	8G\L	4r	.	4.g/	je-	.
.	8BB\	.	.	.	.	.
.	8B\J	8r	.	.	.	.
4.G/	8G\L	(4.e#X/ 4.c#/	.	4.g/	-sień;	.
.	8BB\	.	.	.	.	.
.	8B\J	.	.	.	.	.
=4	=4	=4	=4	=4	=4	=4
4.F#/	8F#\L	4.f#/ 4.d/)	.	4f#/	cień	.
.	8BB\	.	.	.	.	.
.	8B\J	.	.	8f#/	twój	.
4.F#/	8F#\L	4.f#/ 4.d/	.	8f#/L	ni-	.
.	8BB\	.	.	8e/J	.	.
.	(>8B\J	.	.	8d/	-kły,	.
4A/)	8A\L	4r	.	4.a\	bla-	.
.	8BB\	.	.	.	.	.
(8A/	8A\J	8r	.	.	.	.
4G/)	8G\L	(4.e#X/ (4.c#/	.	4.g/	-dy,	.
.	8BB\	.	.	.	.	.
(8G/	8G\J	.	.	.	.	.
!!LO:LB:g=original
=5	=5	=5	=5	=5	=5	=5
*	*	*^	*	*	*	*
!	!	!	!	!	!	!	!LO:DY:a
4F#/)	8F#\L	([4.f#/))	[4.d\	<	8f#/	su-	<
.	8BB\	.	.	.	8f#/	-nąc	.
[8B/	8B\J	.	.	.	8f#/	w niem,	.
4B/]	8D\L	4f#/]	4d\]	.	8f#/	liś-	.
.	8AA\	.	.	.	8g/	-ćmi	.
[8A/	8A\J	8f#/	8c#\	.	8a/	zes-	.
8A/]	8D\L 8AA\	4f#/	[2.B\	.	4.b\	-chłe-	.
8ryy	8GG\	.	.	.	.	.	.
8G/	8G\J	8e/	.	.	.	.	.
4F#/	8D\L	4.d/	.	.	4b\	-mi	.
.	8FF#\	.	.	.	.	.	.
8A/	8A\J	.	.	[	8b\	sze-	[[
=6	=6	=6	=6	=6	=6	=6	=6
4G/	8G\L	8c#/)	8B\]	.	([4.cc#\	-le-	.
.	8EE\	8r	8ryy	.	.	.	.
8G/	8G\J	(>[>8b/ [[<8B/	8ryy	>	.	.	.
4BB/	8BB\L	4b/]	4.B\_<	.	8cc#\L]	.	.
.	8EE\	.	.	.	8b\	.	.
8G/	8E\J	8c#/	.	.	8g\J)	.	.
4C#/	8C#\L	4e^/	(4.B\]]	.	[4.f#/	-ści	.
.	8FF#\	.	.	.	.	.	.
8F#/	8F#\J	8d/)	.	]	.	.	.
4E/	8E\L	4c#X/	4A\)	.	8f#/]	;	.
.	8FF#\	.	.	.	8r	.	.
[8F#/	8F#\J	8r	8ryy	.	8f#/	To	.
!!LO:LB:g=original
=7	=7	=7	=7	=7	=7	=7	=7
!	!	!	!	!	!LO:TX:a:t=espress.	!	!
4.F#/]	8F#\L	4r	4.ryy	.	4f#/	liś-	.
.	8BB\	.	.	.	.	.	.
.	8B\J	(>8dd/ [8d^/	.	.	8f#/	-cie	.
!	!	!	!	!	!	!	!LO:DY:a
4.F#/	8F#\L	8dd/L	4.d\]	.	8f#/	spad-	<
.	8BB\	8g/	.	.	8e/	-łych	.
.	8B\J	8f#/J)	.	.	8d/	o-	.
4.G/	8G\L	(2.e#X/	4c#\	<	4.g/	-ma-	.
.	8BB\	.	.	.	.	.	.
.	.	.	8qen/	[	.	.	.
.	8B\J	.	8d\	>	.	.	.
!	!	!	!	!	!	!	!LO:DY:a
4.G/	8G\L	.	4.c#\	.	4g/	-mień,	[ >
.	8BB\	.	.	]	.	.	.
.	8B\J	.	.	.	8g/	to	]]
=8	=8	=8	=8	=8	=8	=8	=8
!	!	!	!	!	!	!	!LO:DY:a
4.F#/	8F#\L	8f#/ 8d/)	4.ryy	.	4f#/	śla-	<
.	8BB\	8r	.	.	.	.	.
.	8B\J	(>8dd/ [<8d^/	.	.	8f#/	-dy	.
4F#/	8F#\L	8dd/L	4.d\]	.	8f#/	nieg-	.
.	8BB\	8g/	.	.	8e/	-dyś	.
8A/	8A\J	8f#/J)	.	.	8d/	roz-	.
4G/	8G\L	(4e/	4.cn\	.	4.e/	-ko-	.
.	8BB\	.	.	.	.	.	.
.	.	8qg/	.	.	.	.	.
(8G/	8G\J	8f#/	.	.	.	.	.
4F#/)	8F#\L	4e/	4.c\	.	4e/	-szy,	.
.	8AA\	.	.	.	.	.	.
8F#/	8F#\J	8d/)	.	.	8d/	dziś	.
!!LO:PB:g=original
=9	=9	=9	=9	=9	=9	=9	=9
!	!	!	!	!LO:HP:a	!	!	!
4D/	8D\L	8d/	8B\	<	[4.b\	swiad-	.
.	8GG\	8ryy	4ryy	.	.	.	.
8G/	8G\J	[>8b/ [[<8B^/	.	.	.	.	.
4G/	8D\L	8b/L]	4B\]]	.	8b\]	.	.
.	8FF#\	8d/	.	.	8b\	-ki	.
8A/	8A\J	8b/J 8B/	8ryy	.	8b\	bo-	.
4G#X/	8G#\L	4r	4ryy	.	4.dd\	-leś-	.
.	8EE#X\	.	.	.	.	.	.
8G#/	8G#\J	[8b/ [[<8B^/	8ryy	.	.	.	.
4C#/	8C#\L	8b/L]	8B\]]	.	4cc#\	-ci;	.
.	8EE#\	8c#/	4ryy	.	.	.	.
8G#/	8G#\J	8b/J 8B/	.	.	8b\	dziś	.
*	*	*v	*v	*	*	*	*
=10	=10	=10	=10	=10	=10	=10
4C#/	8C#\L	4ryy	.	[4.a\	swiad-	.
.	8FF#\	.	.	.	.	.
8F#/	8F#\J	(>[8a/ 8A^/	.	.	.	.
8F#/	8BB\L	8a/]L 8A/	.	8a\]	.	.
!	!	!	!	!	!	!LO:DY:a
4ryy	8D\	8d/	>	8g/	-ki	>
.	8BB\J	8g/J 8B/	.	8d/	bo-	.
4.C#\	4ryy	8f#/L 8A/	.	4.f#/	-leś-	.
.	.	8c#/	.	.	.	.
.	2ryy	8f#/J 8A/	.	.	.	.
4.CC#/	.	8e#X/L 8B/	.	4.e#X/	.	.
.	.	8c#/	.	.	.	.
.	.	8e#/J 8B/)	.	.	.	.
!!LO:LB:g=original
=11	=11	=11	=11	=11	=11	=11
8r	8ryy	(4.cc#\ 4.a\	pp	4f#/	-ści.	.
8F#/	8F#\L	.	.	.	.	.
8f#/	8f#\J	.	.	8r	.	.
!LO:N:vis=4	!	!	!	!	!	!
8e/	8e\L	4.b#X\ 4.g#X\	<	4r	.	.
!LO:N:vis=4	!	!	!	!	!	!
8F#/	8F#\	.	.	.	.	.
8d/	8d\J	.	.	8r	.	.
!LO:N:vis=4	!	!	!	!	!	!
8c#/	8c#\L	4.cc#\ 4.a\	.	2.r	.	.
8F#/	8F#\	.	.	.	.	.
8f#/	8f#\J	.	.	.	.	.
4e/	8e\L	4.b#\ 4.g#\)	.	.	.	.
.	8F#\	.	.	.	.	.
8d#X/	8d#\J	.	.	.	.	.
=12	=12	=12	=12	=12	=12	=12
*	*	*^	*	*	*	*
!LO:N:vis=4	!	!	!	!	!	!	!
8dn/	8dn\L	([4.b/	4g\	.	2.r	.	.
!LO:N:vis=4	!	!	!	!	!	!	!
8G/	8G\	.	.	.	.	.	.
8d/	8d\J	.	8f#/	.	.	.	.
!LO:N:vis=4	!	!	!	!	!	!	!
8c#/	8c#\L	8b/L]	4.e#X\	.	.	.	.
!LO:N:vis=4	!	!	!	!	!	!	!
8C#/	8C#\	8a/	.	.	.	.	.
8B/	8B\J	8g#X/J)	.	.	.	.	.
*	*	*tremolo	*	*	*	*	*
8A\ 8F#\	2.ryy	16f#/LL	2.ryy	[ >	4r	.	.
.	.	16f#/	.	.	.	.	.
8r	.	16f#/	.	.	.	.	.
.	.	16f#/	.	.	.	.	.
8r	.	16f#/	.	.	8r	.	.
.	.	16f#/JJ	.	.	.	.	.
!	!	!	!	!	!LO:TX:a:t=un poco piu mosso	!	!
4r	.	16f#/LL	.	.	8f#/	Wsłu-	.
.	.	16f#/	.	.	.	.	.
.	.	16f#/	.	.	8f#/	-chaj	.
.	.	16f#/	.	.	.	.	.
8r	.	16f#/	.	.	8f#/	się	.
.	.	16f#/JJ	.	.	.	.	.
*v	*v	*	*	*	*	*	*
*	*v	*v	*	*	*	*
!!LO:LB:g=original
=13	=13	=13	=13	=13	=13
!	!	!	!	!	!LO:DY:a
8r	16g/LL 16f#/	]	8g/	w sze-	<
!	!	!	!LO:TX:a:t=poco a poco	!	!
.	16g/ 16f#/	.	.	.	.
(8e\L	16g/ 16f#/	.	8g/	-lest	.
.	16g/ 16f#/	.	.	.	.
8d\J	16g/ 16f#/	.	8g/	tych	.
.	16g/JJ 16f#/	.	.	.	.
!	!	!LO:HP:b=2	!	!	!
8c#\L	16g/LL 16e/	<	8g/	zes-	.
.	16g/ 16e/	.	.	.	.
8d\	16g/ 16e/	.	8g/	-chłych	.
.	16g/ 16e/	.	.	.	.
!LO:TX:b:i:t=poco a poco	!	!	!	!	!
8c#\J	16g/ 16e/	.	8b\	pa-	.
.	16g/JJ 16e/	.	.	.	.
[4.c#\	16b/LL 16g/ 16e/	.	8b/	-mią-	.
.	16b/J 16g/ 16e/	.	.	.	.
.	16a/L 16g/ 16e/	.	8a/	-tek,	.
.	16a/J 16g/ 16e/	.	.	.	.
.	16a/L 16g/ 16e/	.	8r	.	.
.	16a/JJ 16g/ 16e/	.	.	.	.
*	*Xtremolo	*	*	*	*
8c#\])	16a/LL 16g/ 16e/	.	8a/	wsłu-	.
.	16a/ 16g/ 16e/	.	.	.	.
8r	16a/ 16g/ 16e/	.	8a/	-chaj	.
.	16a/ 16g/ 16e/	.	.	.	.
8r	16a/ 16g/ 16e/	.	8a/	się	.
.	16a/JJ 16g/ 16e/	.	.	.	.
=14	=14	=14	=14	=14	=14
*	*tremolo	*	*	*	*
8r	16b\LL 16a\	.	8b\	w sze-	.
.	16b\ 16a\	.	.	.	.
(8g\L	16b\ 16a\	.	8b\	-lest	.
.	16b\ 16a\	.	.	.	.
8f#\J	16b\ 16a\	.	8b\	tych	.
.	16b\JJ 16a\	.	.	.	.
8e\L	16b\LL 16g\	.	8b\	zes-	.
.	16b\J 16g\	.	.	.	.
8f#\	16b\L 16g\	.	8b\	-chłych	.
.	16b\J 16g\	.	.	.	.
8d\J	16b\L 16g\	.	8ee\	pa-	.
.	16b\JJ 16g\	.	.	.	.
[4.c#\	16ee\LL 16b\ 16g\ 16e\	.	4.ee\	-mią-	.
.	16ee\ 16b\ 16g\ 16e\	.	.	.	.
.	16ee\ 16b\ 16g\ 16e\	.	.	.	.
.	16ee\ 16b\ 16g\ 16e\	.	.	.	.
.	16ee\ 16b\ 16g\ 16e\	.	.	.	.
.	16ee\JJ 16b\ 16g\ 16e\	.	.	.	.
8c#\])	16a/LL 16g/ 16e/	.	4.a\	-tek,	.
.	16a/ 16g/ 16e/	.	.	.	.
8r	16a/ 16g/ 16e/	.	.	.	.
.	16a/ 16g/ 16e/	.	.	.	.
8r	16a/ 16g/ 16e/	.	.	.	.
.	16a/JJ 16g/ 16e/	.	.	.	.
!!LO:LB:g=original
=15	=15	=15	=15	=15	=15
*ped	*	*	*	*	*
!	!	!	!LO:TX:a:t=sonore ma piu tranquillo	!	!
4.DD/	16a/LL 16f#/ 16d/	mf	[4.a\	Mo-	.
.	16a/ 16f#/ 16d/	.	.	.	.
.	16a/ 16f#/ 16d/	.	.	.	.
.	16a/ 16f#/ 16d/	.	.	.	.
.	16a/ 16f#/ 16d/	.	.	.	.
.	16a/ 16f#/ 16d/	.	.	.	.
!LO:TX:b:t=cantando molto	!	!	!	!	!
(4.cn\	16a/ 16f#/ 16d/	.	8a\]	.	.
.	16a/ 16f#/ 16d/	.	.	.	.
.	16a/ 16f#/ 16d/	.	8g/	-że	.
.	16a/ 16f#/ 16d/	.	.	.	.
.	16a/ 16f#/ 16d/	.	8f#/	u-	.
.	16a/JJ 16f#/ 16d/	.	.	.	.
4.B\	16dd/LL 16g/ 16d/	.	4.dd\	-sły-	.
.	16dd/ 16g/ 16d/	.	.	.	.
.	16dd/ 16g/ 16d/	.	.	.	.
.	16dd/ 16g/ 16d/	.	.	.	.
.	16dd/ 16g/ 16d/	.	.	.	.
.	16dd/JJ 16g/ 16d/	.	.	.	.
4.A\)	16dd/LL 16f#/ 16d/	.	4.f#\	-szysz	.
.	16dd/ 16f#/ 16d/	.	.	.	.
.	16dd/ 16f#/ 16d/	.	.	.	.
.	16dd/JJ 16f#/ 16d/	.	.	.	.
*	*Xtremolo	*	*	*	*
.	16f#/LL 16d/	.	.	.	.
.	16f#/JJ 16d/	.	.	.	.
=16	=16	=16	=16	=16	=16
*ped	*tremolo	*	*	*	*
4.DD/	16f#/LL 16d/ 16B/ 16G#X/	.	4f#/	dal-	.
.	16f#/ 16d/ 16B/ 16G#/	.	.	.	.
.	16f#/ 16d/ 16B/ 16G#/	.	.	.	.
.	16f#/ 16d/ 16B/ 16G#/	.	.	.	.
.	16f#/ 16d/ 16B/ 16G#/	.	8f#/	-sze	.
.	16f#/JJ 16d/ 16B/ 16G#/	.	.	.	.
(4.Gn\	16f#/LL 16c#/ 16B-X/	.	8f#/L	stro-	.
.	16f#/J 16c#/ 16B-/	.	.	.	.
.	16d#X/L 16c#/ 16B-/	.	8d#X/J	.	.
.	16d#/J 16c#/ 16B-/	.	.	.	.
.	16f#/L 16c#/ 16B-/	.	8e/	-fy	.
.	16f#/JJ 16c#/ 16B-/	.	.	.	.
4.F#\	16a/LL 16d#/ 16A/	.	4.a\	pie-	.
.	16a/ 16d#/ 16A/	.	.	.	.
.	16a/ 16d#/ 16A/	.	.	.	.
.	16a/ 16d#/ 16A/	.	.	.	.
.	16a/ 16d#/ 16A/	.	.	.	.
.	16a/JJ 16d#/ 16A/	.	.	.	.
4.FF#/)	16a/LL 16d#/ 16A/	.	4.a\	-nia,	.
.	16a/ 16d#/ 16A/	.	.	.	.
.	16a/ 16d#/ 16A/	.	.	.	.
.	16a/ 16d#/ 16A/	.	.	.	.
.	16a/ 16d#/ 16A/	.	.	.	.
.	16a/JJ 16d#/ 16A/	.	.	.	.
*	*Xtremolo	*	*	*	*
!!LO:PB:g=original
=17	=17	=17	=17	=17	=17
*^	*^	*	*	*	*
!	!	!LO:TX:b:t=con gran esspressione	!	!	!LO:TX:a:t=con gran espressione	!	!
(4.EE/	2.ryy	(8a/L	16a\LL	.	8a/	któ-	.
.	.	.	16d\ 16B\	.	.	.	.
.	.	8f#/	16f#\	.	8f#/	-re	.
.	.	.	16d\ 16B\	.	.	.	.
.	.	8g/J	16g\	.	8g/	tak	.
.	.	.	16d\JJ 16B\	.	.	.	.
4.AA/)	.	8b/L	16b\LL	.	8b/	śpiew-	.
.	.	.	16e\ 16c#\	.	.	.	.
.	.	8a/	16a\	.	8a/	-ny	.
.	.	.	16e\ 16c#\	.	.	.	.
.	.	8g/J)	16g\	.	8g/	czer-	.
.	.	.	16e\JJ 16c#\	.	.	.	.
8AA#X/L	2.AA#X\	[4.f#/	16f#\KL	.	4.f#/	-pa-	.
.	.	.	8e\ 8c#\	.	.	.	.
(<8E#X/	.	.	.	.	.	.	.
.	.	.	8e\ 8c#\	.	.	.	.
8F#/J	.	.	.	.	.	.	.
.	.	.	16e\Jk 16c#\	.	.	.	.
8en/L	.	16f#/KL]	4.ryy	.	4f#/	-ło	.
.	.	8f#/	.	.	.	.	.
8d/	.	.	.	.	.	.	.
.	.	8f#/	.	.	.	.	.
8c#/J)	.	.	.	.	8f#/	tak	.
.	.	16f#/Jk 16e/	.	.	.	.	.
=18	=18	=18	=18	=18	=18	=18	=18
2.BB/	2.ryy	(8a/L	16a\LL	.	8a/	śpiew-	.
.	.	.	16d\ 16B\	.	.	.	.
.	.	8f#/	16f#\	.	8f#/	-ny	.
.	.	.	16d\ 16B\	.	.	.	.
.	.	8g/J	16g\	.	8g/	czer-	.
.	.	.	16d\JJ 16B\	.	.	.	.
.	.	8dd/L	16dd\LL	.	8dd\	-pa-	.
.	.	.	16g\ 16d\	.	.	.	.
.	.	8cc#/	16cc#\	.	8cc#\	-ło	.
.	.	.	16g\ 16d\	.	.	.	.
.	.	8b/J)	16b\	.	8b\	po-	.
.	.	.	16g\JJ 16d\	.	.	.	.
!LO:N:vis=2.	!	!	!	!	!	!	!
8C#/L	2.C#\	[4.a/	16a\KL	.	4.a\	-czą-	.
.	.	.	8g\ 8e\	.	.	.	.
(<8G#X/	.	.	.	.	.	.	.
.	.	.	8g\ 8e\	.	.	.	.
8A/J	.	.	.	.	.	.	.
.	.	.	16g\Jk 16e\	.	.	.	.
8gn/L	.	16a/KL]	4.ryy	.	4.a\	-tek	.
.	.	8a/	.	.	.	.	.
8f#/	.	.	.	.	.	.	.
.	.	8a/	.	.	.	.	.
8e/J)	.	.	.	.	.	.	.
.	.	16a/Jk 16g/	.	.	.	.	.
*v	*v	*	*	*	*	*	*
*	*v	*v	*	*	*	*
!!LO:LB:g=original
=19	=19	=19	=19	=19	=19
!	!LO:TX:b:t=un poco rubato	!	!LO:TX:a:t=un poco rubato	!	!
4cn\ 4D\ 4Cn\	4dd/: 4a/: 4f#/: 4d:/	.	8a/	W wio-	.
.	.	.	8f#/	-sny	.
8r	8r	.	8d/	za-	.
4B\: 4E\: 4BB:\	4dd/: 4g#X/: 4d:/	.	8e/	-chwy-	.
.	.	.	8f#/	-tach	.
8r	8r	.	8g#X/	i	.
4F#/: 4C#X/: 4FF#:/	4a/: 4f#/: 4c#X/: 4A:/	.	8b\L	w le-	.
!	!	!	!	!	!LO:DY:a
.	.	.	8a\	.	<
8r	8r	.	8g#\J	.	.
4E/: 4AA/: 4EE:/	4a/: 4c#/: 4Gn:/	.	8a\L	-cie	.
.	.	.	8b\J	.	.
8r	8r	.	8cc#\	na-	[[
=20	=20	=20	=20	=20	=20
8qFF#/	.	.	.	.	.
*	*^	*	*	*	*
!	!	!	!	!	!	!LO:DY:a
8EE/L	2.dd/ 2.c#/	[4.f#\	f	4.dd\	-tchnie-	f
8DD/	.	.	.	.	.	.
8CC#X/J	.	.	.	.	.	.
8DD/L	.	4f#\]	.	4dd\	-nia,	.
8EE/	.	.	.	.	.	.
8FF#/J	.	8a\	.	8dd\	i	.
2.GG/	16dd/:LL 16g/: 16B:/	2.ryy	.	(4ee\	w le-	.
.	16b/ 16g/ 16d/	.	.	.	.	.
.	16b/ 16g/ 16d/	.	>	.	.	.
.	16b/ 16g/ 16d/	.	.	.	.	.
.	16b/ 16g/ 16d/	.	.	[8dd\	.	.
.	16b/JJ 16g/ 16d/	.	.	.	.	.
*	*tremolo	*	*	*	*	*
!	!	!	!	!	!	!LO:DY:a
.	16g/LL 16e/ 16B/	.	.	8dd\])	.	>
.	16g/ 16e/ 16B/	.	.	.	.	.
.	16e/ 16B/ 16G/	.	.	8b/	-cie	.
.	16e/ 16B/ 16G/	.	.	.	.	.
.	16d/ 16B/ 16E/	.	.	8g/	na	]]
.	16d/JJ 16B/ 16E/	.	.	.	.	.
*	*v	*v	*	*	*	*
!!LO:LB:g=original
=21	=21	=21	=21	=21	=21
4.AA/	16d/LL 16A/ 16F#/	]	(4.f#/	.	.
.	16d/ 16A/ 16F#/	.	.	.	.
.	16d/ 16A/ 16F#/	.	.	.	.
.	16d/ 16A/ 16F#/	.	.	.	.
.	16d/ 16A/ 16F#/	.	.	.	.
.	16d/JJ 16A/ 16F#/	.	.	.	.
4.AAA/	16c#/LL 16G/	.	4.e/)	.	.
.	16c#/ 16G/	.	.	.	.
.	16c#/ 16G/	.	.	.	.
.	16c#/ 16G/	.	.	.	.
.	16c#/ 16G/	.	.	.	.
.	16c#/JJ 16G/	.	.	.	.
*	*Xtremolo	*	*	*	*
8r	(4.f#/ 4.d/ 4.F#/	>	4d/	.	.
(8AAA#X/L	.	.	.	.	.
8AA#X/J)	.	.	8r	.	.
8r	4.e#X/ 4.c#/ 4.E#X/)	]]	4r	.	.
(8BB/L	.	.	.	.	.
8BBB/J)	.	.	8r	.	.
=22	=22	=22	=22	=22	=22
*	*^	*	*	*	*
8r	(4.f#/ 4.d/ 4.F#/	2.ryy	>	1.r	.	.
(8AAAn/L	.	.	.	.	.	.
8AAn/J)	.	.	.	.	.	.
8r	4.e#X/ 4.c#/ 4.E#X/	.	]	.	.	.
(8GG#X/L	.	.	.	.	.	.
8GGG#X/J)	.	.	.	.	.	.
*	*clefF4	*	*	*	*	*
8r	4.en\ 4.cn\ 4.En\	4.ryy	pp	.	.	.
(8GGGn/L	.	.	.	.	.	.
8GGn/J)	.	.	.	.	.	.
8r	[4.d\ 4.B\ [4.D\	4ryy	.	.	.	.
(8FFn/L	.	.	.	.	.	.
8FFFn/J)	.	8A\	.	.	.	.
=23	=23	=23	=23	=23	=23	=23
(4.EE/ 4.EEE/	8d/]L 8D/])	[4.G\	<	1.r	.	.
.	8cn/ 8Cn/	.	.	.	.	.
.	8B/J 8BB/	.	.	.	.	.
[4.FF#/ [4.FFF#/	(4.A#X/ (4.AA#X/	8G\L]	[ >	.	.	.
.	.	8F#\	.	.	.	.
.	.	8qAn\	.	.	.	.
.	.	8G\J	.	.	.	.
8FF#/] 8FFF#/])	8A/ 8AA#/))	2.F#\	] pp	.	.	.
8r	8r	.	.	.	.	.
8r	8r	.	.	.	.	.
4r	4r	.	.	.	.	.
8r	8r	.	.	.	.	.
*	*clefG2	*	*	*	*	*
!!LO:LB:g=original
=24	=24	=24	=24	=24	=24	=24
*^	*	*	*	*	*	*
!	!	!	!	!	!LO:TX:a:t=sotto voce	!	!
4.F#/	8F#\L	4r	4.ryy	.	[4.f#/	Dzi-	.
.	8BB\	.	.	.	.	.	.
.	8B\J	[8dd/ 8d/	.	.	.	.	.
4.F#/	8F#\L	8dd/L]	[4.d\	.	8f#/]	.	.
.	8BB\	8g/	.	.	8e/	-siaj	.
.	8B\J	8f#/J	.	.	8d/	pod	.
4.G/	8G\L	2.e#X/	(>16d\LL]	<	4.g/	sto-	.
.	.	.	16c#\	.	.	.	.
.	8BB\	.	16B#X\	.	.	.	.
.	.	.	16c#\	.	.	.	.
.	8Bn\J	.	16en\	.	.	.	.
.	.	.	16d\JJ	[ >	.	.	.
4.G/	8G\L	.	4.c#\	.	4g/	-pą	.
.	8BB\	.	.	]	.	.	.
.	8B\J	.	.	.	8g/	liść	.
=25	=25	=25	=25	=25	=25	=25	=25
4.F#/	8F#\L	8f#/ 8d/)	4.ryy	.	[4.f#/	chwa-	.
.	8BB\	8r	.	.	.	.	.
.	8B\J	[>8dd/ [<8d^/	.	.	.	.	.
4.F#/	8F#\L	8dd/L]	4.d\_	.	8f#/]	-szczy-	.
.	8BB\	8g/	.	.	8e/	-szczy	.
.	8B\J	8f#/J	.	.	8d/	i	.
!	!	!	!	!LO:HP:b=2	!	!	!
4.G/	8G\L	(2.e#X/	16d\LL]	<	4.g/	sy-	.
.	.	.	16c#\	.	.	.	.
.	8BB\	.	16B#X\	.	.	.	.
.	.	.	16c#\	.	.	.	.
.	8Bn\J	.	16en\	.	.	.	.
.	.	.	16d\JJ	[	.	.	.
!	!	!	!	!LO:HP:b=2	!	!	!
4.G/	8G\L	.	4.c#\	>	4.g/	-czy,	.
.	8BB\	.	.	.	.	.	.
.	8B\J	.	.	]	.	.	.
!!LO:PB:g=original
=26	=26	=26	=26	=26	=26	=26	=26
!LO:N:vis=4.	!	!	!	!	!	!	!
4F#/	8F#\L	8f#/ 8d/)	4.ryy	.	4f#/	Bu-	.
.	8BB\	8r	.	.	.	.	.
!	!	!	!	!	!	!	!LO:DY:a
(8B/	8B\J	(>8dd/ 8d^/	.	.	8f#/	-dząc	<
!	!	!	!	!LO:HP:b=2	!	!	!
4B/)	8D\L	8dd/L	[4.d\	<	8f#/	w je-	.
.	8AA\	8g/	.	.	8g/	-sien-	.
8A/	8A\J	8f#/J	.	.	8a/	-nej	.
4D/	8D\L	4.e/	16d\LL]	.	[4.b\	mgle	.
.	.	.	16c#\	.	.	.	.
.	8GG\	.	16B\	.	.	.	.
.	.	.	16d\	.	.	.	.
8G/	8G\J	.	16c#\	.	.	.	.
.	.	.	16B\JJ	.	.	.	.
4D/	8D\L	4.f#/	16d\LL	.	4.b\]	.	[
.	.	.	16c#\	.	.	.	.
.	8FF#\	.	16B\	.	.	.	.
.	.	.	16d\	.	.	.	.
8A/	8A\J	.	16c#\	.	.	.	.
.	.	.	16B\JJ)	[	.	.	.
=27	=27	=27	=27	=27	=27	=27	=27
!	!	!	!	!LO:HP:b=2	!	!	!
4BB/	8BB\L	(2.g/	16e\LL	>	[4.cc#\	wspo-	.
.	.	.	16c#\	.	.	.	.
.	8EE\	.	16B\	.	.	.	.
.	.	.	16e\	.	.	.	.
8G/	8G\J	.	16c#\	.	.	.	.
.	.	.	16B\JJ	.	.	.	.
!	!	!	!	!	!	!	!LO:DY:a
4BB/	8BB\L	.	16e\LL	.	8cc#\]	.	>
.	.	.	16c#\	.	.	.	.
.	8EE\	.	16B\	.	8b\	-mnień	.
.	.	.	16e\	.	.	.	.
8G/	8G\J	.	16c#\	.	8g/	sze-	.
.	.	.	16B\JJ	.	.	.	.
4C#/	8C#\L	2.f#/	16e\LL	.	4.f#/	-re-	.
.	.	.	16c#\	.	.	.	.
.	8FF#\	.	16B\	.	.	.	.
.	.	.	16e\	.	.	.	.
8F#/	8F#\J	.	16c#\	.	.	.	.
.	.	.	16B\JJ	.	.	.	.
4C#/	8C#\L	.	16e\LL	.	4.f#/	-gi;	]
.	.	.	16c#\	.	.	.	.
.	8FF#\	.	16A#X\	.	.	.	.
.	.	.	16e\	.	.	.	.
8F#/	8F#\J	.	16c#\	.	.	.	.
.	.	.	16A#\JJ)	.	.	.	.
*v	*v	*	*	*	*	*	*
*	*v	*v	*	*	*	*
!!LO:LB:g=original
=28||	=28||	=28||	=28||	=28||	=28||
*k[f#c#g#d#a#]	*k[f#c#g#d#a#]	*	*k[f#c#g#d#a#]	*	*
*^	*^	*	*	*	*
!LO:TX:b:t=espress.	!	!	!	!	!LO:TX:a:t=epress.	!	!
2.GG#/	2.ryy	(8f#/L	16f#\LL	] p	8f#/	A	.
.	.	.	16B\ 16G#\	.	.	.	.
.	.	8d#/	16d#\	.	8d#/	więc	.
.	.	.	16B\ 16G#\	.	.	.	.
.	.	8e/J	16e\	.	8e/	się	.
.	.	.	16B\JJ 16G#\	.	.	.	.
.	.	8g#/L	16g#\LL	.	8g#/	ser-	.
.	.	.	16B\ 16G#\	.	.	.	.
.	.	8f#/	16f#\	.	8f#/	-cu	.
.	.	.	16B\ 16G#\	.	.	.	.
.	.	8e/J)	16e\	.	8e/	nie	.
.	.	.	16B\JJ 16G#\	.	.	.	.
!LO:N:vis=2.	!	!	!	!	!	!	!
8FF##X/L	2.FF##\	[4.d#/	16d#\KL	.	2.d#/	dziw,	.
.	.	.	8c#\ 8A#\	.	.	.	.
(<8C##X/	.	.	.	.	.	.	.
.	.	.	8c#\ 8A#\	.	.	.	.
8D#/J	.	.	.	.	.	.	.
.	.	.	16c#\Jk 16A#\	.	.	.	.
8c#X/L	.	16d#/KL]	4.ryy	.	.	.	.
.	.	8d#/	.	.	.	.	.
8B/	.	.	.	.	.	.	.
.	.	8d#/	.	.	.	.	.
8A#/J)	.	.	.	.	.	.	.
.	.	16d#/Jk 16c#/	.	.	.	.	.
=29	=29	=29	=29	=29	=29	=29	=29
2.GG#/	2.ryy	(8f#/L	16f#\LL	.	8f#/	ser-	.
.	.	.	16B\ 16G#\	.	.	.	.
.	.	8d#/	16d#\	.	8d#/	-cu	.
.	.	.	16B\ 16G#\	.	.	.	.
.	.	8e/J	16e\	.	8e/	nie	.
.	.	.	16B\JJ 16G#\	.	.	.	.
.	.	8b/L	16b\LL	.	8b\	dziw	.
.	.	.	16e\ 16B\	.	.	.	.
.	.	8a#/	16a#\	.	8a#/	jeś-	.
.	.	.	16e\ 16B\	.	.	.	.
.	.	8g#/J)	16g#\	.	8g#/	-li	.
.	.	.	16e\JJ 16B\	.	.	.	.
!LO:N:vis=2.	!	!	!	!	!	!	!
8AA#/L	2.AA#\	[4.f#/	16f#\KL	.	4.f#/	ży-	.
.	.	.	8e\ 8c#\	.	.	.	.
(<8E#X/	.	.	.	.	.	.	.
.	.	.	8e\ 8c#\	.	.	.	.
8F#/J	.	.	.	.	.	.	.
.	.	.	16e\Jk 16c#\	.	.	.	.
8en/L	.	16f#/KL]	4.ryy	.	4f#/	-czy	.
.	.	8f#/	.	.	.	.	.
8d#/	.	.	.	.	.	.	.
.	.	8f#/	.	.	.	.	.
8c#/J)	.	.	.	.	8f#/	By	.
.	.	16f#/Jk 16e/	.	.	.	.	.
*v	*v	*	*	*	*	*	*
*	*v	*v	*	*	*	*
!!LO:LB:g=original
=30	=30	=30	=30	=30	=30
4An\: 4BB\: 4AAn:\	4b/: 4f#/: 4d#/: 4B:/	.	8f#/L	wresz-	.
.	.	.	8d#/J	.	.
8r	8r	.	8B/	-cie	.
!	!	!	!	!	!LO:DY:a
4G#\: 4C#\: 4GG#:\	4cc#/: 4e#X/: 4B:/	<	8c#/L	spad-	<
.	.	.	8d#/J	.	.
8r	8r	.	8e#X/	-ły	.
4D#/: 4AA#X/: 4DD#:/	4f#/: 4d#/: 4A#X/: 4F#:/	.	8g#/L	za-	.
.	.	.	8f#/J	.	.
8r	8r	.	8e#/	-po-	.
4C#/: 4FF#/: 4CC#:/	4f#/: 4en/: 4A#/: 4F#:/	.	8f#/L	-mnie-	.
.	.	.	8g#/J	.	.
8r	8r	[[	8a#/	-nia	[
=31	=31	=31	=31	=31	=31
8qEE#X/	.	.	.	.	.
*^	*^	*	*	*	*
!	!	!	!	!	!	!	!LO:DY:a
8DD#/L	2.ryy	[4.cc#/	2.c#\ 2.B\	<	[4.cc#\	snie-	>
8CC#/	.	.	.	.	.	.	.
!	!	!LO:TX:b:i:t=sempre	!	!	!	!	!
8BBB#X/J	.	.	.	.	.	.	.
8CC#/L	.	8cc#\L]	.	.	8cc#\L]	.	.
8DD#/	.	8bn\	.	.	8b\	.	.
8EE#/J	.	8g#\J	.	.	8g#\J	.	]
!LO:N:vis=2.	!	!	!	!	!	!	!
8FF#/L	2.FF#\	[4.f#/	16f#\KL	.	4f#/	-gi!	.
.	.	.	8d#\ 8B\ 8F#\	.	.	.	.
8BBn/	.	.	.	.	.	.	.
.	.	.	8d#\ 8B\ 8F#\	.	.	.	.
8D#/J	.	.	.	.	8r	.	.
.	.	.	16d#\Jk 16B\ 16F#\	.	.	.	.
8E/L	.	4.f#/]	16f#\KL	.	4r	.	.
.	.	.	8c#\ 8A#\ 8F#\	.	.	.	.
8C#/	.	.	.	.	.	.	.
.	.	.	8c#\ 8A#\ 8F#\	.	.	.	.
8E/J	.	.	.	.	8r	.	.
.	.	.	16c#\Jk 16A#\ 16F#\	.	.	.	.
!!LO:LB:g=original
=32	=32	=32	=32	=32	=32	=32	=32
8GG#/L	4.GG#\	(8b/L	16b\LL	.	4r	.	.
.	.	.	16B\	.	.	.	.
8E/	.	8g#/	16g#\	.	.	.	.
.	.	.	16B\	.	.	.	.
8G#/J	.	8e/J	16e\	.	8r	.	.
.	.	.	16B\JJ	.	.	.	.
4.C#/	8C#\L	8f#/L	16f#\LL	.	4r	.	.
.	.	.	16e\ 16A#\	.	.	.	.
.	8F#\	8g#/	16g#\	.	.	.	.
.	.	.	16e\ 16B\	.	.	.	.
.	8FF#\J	8a#/J)	16a#\	.	8a#/	By	.
.	.	.	16e\JJ 16c#\	.	.	.	.
!	!	!	!	!	!LO:TX:a:t=con gran espressione	!	!
8GG#/L	4.GG#\	(8cc#/L	16cc#\LL	.	8cc#\L	wresz-	.
.	.	.	16c#\ 16B\	.	.	.	.
8D#/	.	8b/	16b\	.	8b\J	.	.
.	.	.	16d#\ 16B\	.	.	.	.
8G#/J	.	8a#/J	16a#\	.	8a#/	-cie	.
.	.	.	16d#\JJ 16A#\	.	.	.	.
8AAn/L	4.AAn\	4.b/)	16b\KL	.	8b\L	spad-	.
.	.	.	8d#\ 8B\	.	.	.	.
8BB/	.	.	.	.	8cc#\J	.	.
.	.	.	8d#\ 8B\	.	.	.	.
8An/J	.	.	.	.	8dd#\	-ły	.
.	.	.	16d#\Jk 16B\	.	.	.	.
=33	=33	=33	=33	=33	=33	=33	=33
!	!	!	!	!	!	!	!LO:DY:a
4.GG#/	8GG#\L	4.b/	16b\KL	f	(4.ee\	za-	f
.	.	.	8e\ 8B\	.	.	.	.
.	8BB\	.	.	.	.	.	.
.	.	.	8e\ 8B\	.	.	.	.
.	8G#\J	.	.	.	.	.	.
.	.	.	16e\Jk 16B\	.	.	.	.
4.FF#/	8FF#\L	4.b/	16b\KL	.	4dd#\)	.	.
!	!	!LO:TX:a:t=dis	!	!	!	!	!
.	.	.	8d#\ 8B\	.	.	.	.
.	8BB\	.	.	.	.	.	.
.	.	.	8d#\ 8B\	.	.	.	.
.	8F#\J	.	.	.	8dd#\	-po-	.
.	.	.	16d#\Jk 16B\	.	.	.	.
!	!LO:N:vis=2.	!	!LO:N:vis=2.	!	!	!	!
2.EE#X/	8EE#\L	2.b/	16b\KL	.	[4.cc#\	-mnie-	.
.	.	.	8c#\ 8B\	.	.	.	.
.	8C#\	.	.	.	.	.	.
.	.	.	8c#\ 8B\	.	.	.	.
.	8G#\J	.	.	.	.	.	.
.	.	.	8c#\ 8B\	.	.	.	.
.	8C#\L	.	.	.	8cc#\]	.	.
.	.	.	8c#\ 8B\	.	.	.	.
.	8G#\	.	.	.	8b\	-nia	.
.	.	.	8c#\ 8B\	.	.	.	.
.	8C#\J	.	.	.	8g#/	by	.
.	.	.	16c#\Jk 16B\	.	.	.	.
!!LO:PB:g=original
=34	=34	=34	=34	=34	=34	=34	=34
!LO:N:vis=2.	!	!	!	!	!	!	!
8FF#/L	2.FF#\	4.b/	16b\KL	.	[4.b\	spa-	.
.	.	.	8d#\ 8B\	.	.	.	.
8BB/	.	.	.	.	.	.	.
.	.	.	8d#\ 8B\	.	.	.	.
8F#/J	.	.	.	.	.	.	.
.	.	.	16d#\Jk 16B\	.	.	.	.
8D#\L	.	4.f#/	16f#\KL	.	8b/L]	.	.
.	.	.	8d#\ 8B\ 8F#\	.	.	.	.
8BB\	.	.	.	.	8d#/J	.	.
.	.	.	8d#\ 8B\ 8F#\	.	.	.	.
8D#\J	.	.	.	.	8e/	-dły	.
.	.	.	16d#\Jk 16B\ 16F#\	.	.	.	.
!LO:N:vis=2.	!	!	!LO:N:vis=2.	!LO:HP:a	!	!	!
8FF#/L	2.FF#\	2.f#/	16f#\KL	>	[4.f#/	snie-	.
.	.	.	8c#\ 8B\ 8F#\	.	.	.	.
8C#/	.	.	.	.	.	.	.
.	.	.	8c#\ 8B\ 8F#\	.	.	.	.
8E/J	.	.	.	.	.	.	.
.	.	.	8c#\ 8B\ 8F#\	.	.	.	.
8C#/L	.	.	.	.	8f#/L]	.	.
.	.	.	8c#\ 8A#\ 8F#\	.	.	.	.
8E/	.	.	.	.	8g#/	.	.
.	.	.	8c#\ 8A#\ 8F#\	.	.	.	.
8C#/J	.	.	.	.	8f#/J	.	.
.	.	.	16c#\Jk 16A#\ 16F#\	]	.	.	.
*v	*v	*	*	*	*	*	*
=35	=35	=35	=35	=35	=35	=35
8r	(4.b\ 4.gn\	2.ryy	pp	4B/	-gi!	.
(8BB\L	.	.	.	.	.	.
8B\J)	.	.	.	8r	.	.
8r	4.a#/ 4.f#/	.	.	4r	.	.
(8c#\L	.	.	.	.	.	.
8E\J)	.	.	.	8r	.	.
!	!LO:TX:a:t=poco sfz	!	!LO:DY:a	!	!	!
8r	[4.an/)	(4fn^\	sf	4r	.	.
(8Fn\L	.	.	.	.	.	.
!	!	!	!LO:HP:b=2	!	!	!
8cn\J)	.	8e\	<	8an/	By	.
8r	8a/L]	4.d#X\)	.	8a/L	wresz-	.
(8B\L	8gn/	.	.	8gn/J	.	.
8BB\J)	8f/J	.	[[	8f#/	-cie	.
*	*v	*v	*	*	*	*
!!LO:LB:g=original
=36	=36	=36	=36	=36	=36
*^	*	*	*	*	*
8r	4.ryy	4.e/ 4.cn/	.	4.e/	spad-	.
(8Cn\L	.	.	.	.	.	.
8Gn\J)	.	.	.	.	.	.
8r	8r	[4.dn/ [4.B/	.	4.dn/	-ły	.
*ped	*	*	*	*	*	*
!LO:N:vis=4	!	!	!LO:HP:b=2	!	!	!
[[<8GGny/	8GGny\L	.	>	.	.	.
!	!	!LO:TX:a:t=poco riten.	!	!	!	!
[<8Dn/	8Dn\J	.	.	.	.	.
!	!	!	!	!LO:TX:a:t=poco riten.	!	!
&[[4.G\]] 4.D\_ 4.GG\_	4ryy	(16d/]LL 16B/]	.	4r	.	.
.	.	16B/	.	.	.	.
.	.	16d/	.	.	.	.
.	.	16gn/	.	.	.	.
.	2ryy	16b/	.	8r	.	.
.	.	16ddn/JJ	.	.	.	.
*Xped	*	*	*	*	*	*
8G\&]] 8D\] 8GG\]	.	8ggn\)	]	8r	.	.
!	!	!LO:TX:b:t=a tempo	!	!LO:TX:a:t=a tempo	!	!LO:DY:a
8r	.	8r	.	8b\	za-	p
8r	.	8r	.	8b\	-po-	.
=37	=37	=37	=37	=37	=37	=37
8r	8ryy	4r	.	[2.cc#\	-mnie-	.
*ped	*	*	*	*	*	*
[[<8EE/L	4EE\	.	.	.	.	.
!	!	!	!LO:HP:b=2	!	!	!
[<8BB/J	.	8r	<	.	.	.
4.Gn/ 4.BB/] 4.EE/]]	4.ryy	16r	.	.	.	.
.	.	(16B/LL	.	.	.	.
.	.	16e/	.	.	.	.
.	.	16gn/	.	.	.	.
.	.	16cc#/	.	.	.	.
*Xped	*	*	*	*	*	*
.	.	16g/JJ)	.	.	.	.
*ped	*	*	*	*	*	*
[[<16FF#/	16FF#\LL	8.r	.	4.cc#\]	.	.
[<16C#/	16C#\JJ	.	.	.	.	.
[4F#/ 4C#/_ [4FF#/]]	4ryy	.	.	.	.	.
.	.	(16A#/LL	.	.	.	.
.	.	16e/	.	.	.	.
.	.	16g/JJ	.	.	.	.
4.F#/] 4.C#/] 4.FF#/]	8ryy	16cc#/LL	.	4.f#/	-nia	.
*Xped	*	*	*	*	*	*
.	.	16f#/	.	.	.	.
.	4ryy	16e#X/	.	.	.	.
.	.	16en/	.	.	.	.
.	.	16d#/	.	.	.	.
.	.	16c#/JJ)	[[	.	.	.
!!LO:LB:g=original
=38	=38	=38	=38	=38	=38	=38
!	!LO:N:vis=8	!	!	!	!	!LO:DY:a
N([[<16BBB/LL	16BBB\	8.r	pp	(2.dd#\	śnie-	pp
[<16FF#/JJ	16FF#\	.	.	.	.	.
[4BB/ 4FF#/_ [4BBB/]]	4ryy	.	.	.	.	.
*	*	*clefF4	*	*	*	*
.	.	16D#\LL	.	.	.	.
.	.	16F#\	.	.	.	.
.	.	16B\JJ	.	.	.	.
*	*	*clefG2	*	*	*	*
4.BB/_ 4.FF#/_> 4.BBB/_	4.ryy	16d#\LL	.	.	.	.
.	.	16f#\	.	.	.	.
.	.	16b\	.	.	.	.
.	.	16dd#\	.	.	.	.
.	.	16ff#\	.	.	.	.
.	.	16bb\JJ	.	.	.	.
4BB/] 4FF#/] 4BBB/]	2.ryy	4ddd#\N)	.	[2.b\)	-gi.	.
8r	.	8r	.	.	.	.
!	!	!	!LO:DY:rj:b=2	!	!	!
[4.BB/ [4.FF#/ [4.BBB/	.	(4.d#/ 4.B/ (4.F#/	ppp	.	.	.
*v	*v	*	*	*	*	*
=39	=39	=39	=39	=39	=39
2.BB/] 2.FF#/] 2.BBB/]	2.B/ 2.F#/ 2.D#/))	.	4b\]	.	.
.	.	.	8r	.	.
.	.	.	4r	.	.
.	.	.	8r	.	.
==	==	==	==	==	==
*-	*-	*-	*-	*-	*-
!!!system-decoration: s1[(s2,s3)]
!!!RDF**kern: > = above
!!!RDF**kern: < = below
!!!RDF**dynam: > = dimin
!!!RDF**kern: N = linked
!!!ENC: Andrzej Gręziak
!!!END: 2022-02-16
!!!AIN: 1 empty 1 piano
!!!ENC: Leszek Kubiak
!!!END: 2022-02-18
